X:1
T:Title
%%score { ( 1 3 ) | ( 2 4 ) }
L:1/8
M:6/8
K:Bb
V:1 treble nm="Grand Piano"
V:3 treble 
V:2 bass 
V:4 bass 
V:1
 z3 z2[Q:1/4=87] [DF] | [DF][DF][DF] [B,D][CE][DF] | [_DG]3 [=DF]2 [_AB] | %3
 [GB][^FA][GB] [Ac][GB][EG] |[M:5/8] [DF]-[DF]- [DF]3 |[M:1/8] B |[M:3/4] AA AA GA | %7
 [DB]3 [Fd]2 [Fd] | [=EG][EG] [EG][EG] [EA][EB] |[M:3/8] [Ec]3 | [Fd]3 | %11
[M:3/4] [DB][DA] [DG][DB] [DA][DG] | B3 A2 F | c6 |[M:5/8] d-d- d3 |[M:1/8] B | %16
[M:3/4] [GB][GB] [GB][GB] AG | [DF][_D=E] [=DF] [Fd]2 [Fd] | [=Ed][Ec] [EB][EG] [EA][EB] | %19
[M:3/8] [Ec]3 | [Fd]3 |[M:3/4] [DB][DA] [DG][DB] [DA][DG] | B3 A2 F | c6 |[M:5/8] d-d- d3 | %25
[M:1/8] B |[M:3/4] B2 Bc BB | d2 d[Ge] [Gd][Gc] | [FB]3 [EA]3 |[M:5/8] [DB]-[DB]- [DB]3 |] %30
V:2
 z3 z2 [B,,B,] | [B,,B,][B,,B,][B,,B,] [B,,F,][B,,F,][B,,F,] | [B,,=E,]3 [B,,F,]2 [B,,B,] | %3
 [E,B,][E,B,][E,B,] [E,E][E,E][E,B,] |[M:5/8] [B,,B,]-[B,,B,]- [B,,B,]3 |[M:1/8] [D,B,D] | %6
[M:3/4] [F,CE][F,CE] [F,CE][F,CE] [F,B,E][F,CE] | [B,,B,]3 [B,,B,]2 [B,,B,] | %8
 [C,B,][C,B,] [C,B,][C,B,] [C,A,][C,G,] |[M:3/8] [F,A,]3 | [F,A,]3 | %11
[M:3/4] [B,,F,][B,,F,] [B,,F,][B,,F,] [B,,F,][B,,B,] | [F,CE]3 [F,CE]2 [F,A,E] | %13
 [F,A,E][F,C] [F,C][F,C] [F,B,][F,A,] |[M:5/8][K:treble] [B,F][B,D][B,D] [B,D][B,D] | %15
[M:1/8] [B,DF] |[M:3/4][K:bass] [E,E][E,E] [E,E]E [B,F][E,B,E] | %17
 [B,,B,][B,,B,] [B,,B,] [B,,B,]2 [B,,B,] | [C,B,][C,B,] [C,B,][C,B,] [C,A,][C,G,] | %19
[M:3/8] [F,A,]3 | [F,A,]3 |[M:3/4] [B,,F,][B,,F,] [B,,F,][B,,F,] [B,,F,][B,,B,] | %22
 [F,CE]3 [F,CE]2 [F,A,E] | [F,A,E][F,C] [F,C][F,C] [F,B,][F,A,] | %24
[M:5/8][K:treble] [B,F][B,D][B,D] [B,D][B,D] |[M:1/8] [B,DF] | %26
[M:3/4] [B,DF]2 [B,DF][F,A,F] [F,G,F][F,A,F] | [B,F]2 [G,=B,G][K:bass][C,C] [D,B,][E,C] | %28
 [F,D]3 [F,C]3 |[M:5/8] [B,,B,]-[B,,B,]- [B,,B,]3 |] %30
V:3
 x6 | x6 | x6 | x6 |[M:5/8] x5 |[M:1/8] x |[M:3/4] x6 | x6 | x6 |[M:3/8] x3 | x3 |[M:3/4] x6 | x6 | %13
 z A AA GF |[M:5/8] z BB BG |[M:1/8] x |[M:3/4] x6 | x6 | x6 |[M:3/8] x3 | x3 |[M:3/4] x6 | x6 | %23
 z A AA GF |[M:5/8] z BB BG |[M:1/8] x |[M:3/4] x6 | x6 | x6 |[M:5/8] x5 |] %30
V:4
 x6 | x6 | x6 | x6 |[M:5/8] x5 |[M:1/8] x |[M:3/4] x6 | x6 | x6 |[M:3/8] x3 | x3 |[M:3/4] x6 | x6 | %13
 x6 |[M:5/8][K:treble] x5 |[M:1/8] x |[M:3/4][K:bass] z2 z .E,3 | x6 | x6 |[M:3/8] x3 | x3 | %21
[M:3/4] x6 | x6 | x6 |[M:5/8][K:treble] x5 |[M:1/8] x |[M:3/4] x6 | x3[K:bass] x3 | x6 | %29
[M:5/8] x5 |] %30

